material/.icons/material/shield-check.svg

<svg xmlns="http://www.w3.org/2000/svg" viewBox="0 0 24 24"><path d="M10 17l-4-4 1.41-1.41L10 14.17l6.59-6.59L18 9m-6-8L3 5v6c0 5.55 3.84 10.74 9 12 5.16-1.26 9-6.45 9-12V5l-9-4z"/></svg>

<?xml version="1.0" encoding="UTF-8"?><!DOCTYPE svg PUBLIC "-//W3C//DTD SVG 1.1//EN" "http://www.w3.org/Graphics/SVG/1.1/DTD/svg11.dtd"><svg xmlns="http://www.w3.org/2000/svg" xmlns:xlink="http://www.w3.org/1999/xlink" version="1.1" id="mdi-shield-check" width="24" height="24" viewBox="0 0 24 24"><path d="M10,17L6,13L7.41,11.59L10,14.17L16.59,7.58L18,9M12,1L3,5V11C3,16.55 6.84,21.74 12,23C17.16,21.74 21,16.55 21,11V5L12,1Z" /></svg>
